X: 155
T: No_79_Warriors'_Song.krn
%%abc-version 2.0
%%abcx-abcm2ps-target-version 5.9.1 (29 Sep 2008)
%%abc-creator hum2abc beta
%%abcx-conversion-date 2020/08/10 18:54:56
%%gracespace 0 6 6
%%humdrum-veritas 1515067490
%%humdrum-veritas-data 3403333919
%%linebreak <none>
%%barnumbers 0
L: 1/8
M: 2/4
%%staves {1 2}
V: 1 clef=bass
V: 2 clef=bass
K: G
[V:1] E/ [I:setbarnb 1]| 
[V:2] z/ | 
[V:1] D>D E3/E/ | 
[V:2] (3!accent!G,, z G,, (3!accent!G,, z G,, | 
[V:1] D>B, A,B, | 
[V:2] z4 | 
[V:1] A,2A,3/D/ | 
[V:2] z4 | 
[V:1] D>D E3/E/ | 
[V:2] z4 | 
[V:1] D>B, A,B, | 
[V:2] z4 | 
[V:1] B,<A, A,3/B,/ | 
[V:2] z4 | 
[V:1] B,>B,A,2 ||  
[V:2] z4 ||  
[V:1] [M:3/4](3A,G,G,G,2G,2 | 
[V:2] [M:3/4]z6 | 
[V:1] D,E,D,2D,3/G,/ ||  
[V:2] z6 ||  
[V:1] [M:2/4]G,>G, E,3/E,/ ||  
[V:2] [M:2/4]z4 ||  
[V:1] [M:3/4]D,E,D,2D,3/D,/ ||  
[V:2] [M:3/4]z6 ||  
[V:1] [M:2/4]D,4- | 
[V:2] [M:2/4]z4 | 
[V:1] D,2-D,3/A,/ ||  
[V:2] z4 ||  
[V:1] [M:3/4]A,>A, B,>B, A,3/A,/ | 
[V:2] [M:3/4]z6 | 
[V:1] A,<G,G,2G,3/G,/ | 
[V:2] z6 | 
[V:1] D,E,D,2D,3/G,/ ||  
[V:2] z6 ||  
[V:1] [M:2/4]G,>G, E,3/E,/ ||  
[V:2] [M:2/4]z4 ||  
[V:1] [M:3/4]D,E,D,2D,3/D,/ ||  
[V:2] [M:3/4]z6 ||  
[V:1] [M:2/4]D,4- | 
[V:2] [M:2/4]z4 | 
[V:1] D,4 |]  
[V:2] z4 |]  


